lib/brands/icons/kakao-talk.svg

<svg xmlns="http://www.w3.org/2000/svg" fill="none" aria-hidden="true" viewBox="0 0 48 48"><g id="kakao_talk-Icon"><g id="kakao_talk"><path id="bg" fill="black" d="M23.9921 4.5C12.3999 4.5 3 11.9577 3 21.1607C3 27.111 6.92715 32.3234 12.8415 35.2827L10.7124 42.9387C10.7124 42.9387 10.6729 43.2957 10.9016 43.4306C11.1303 43.5654 11.4063 43.4623 11.4063 43.4623C12.0687 43.3671 19.0556 38.4244 20.2779 37.5676C21.4844 37.7421 22.7383 37.8294 24.0079 37.8294C35.6001 37.8294 45 30.3717 45 21.1687C45 11.9656 35.5843 4.5 23.9921 4.5Z"/><path id="talk" fill="#FFE812" d="M12.3846 26.968C11.7143 26.968 11.1702 26.4444 11.1702 25.8018V18.5583H9.2776C8.62308 18.5583 8.09473 18.0268 8.09473 17.3683C8.09473 16.7098 8.63096 16.1782 9.2776 16.1782H15.4838C16.1383 16.1782 16.6666 16.7098 16.6666 17.3683C16.6666 18.0268 16.1304 18.5583 15.4838 18.5583H13.5912V25.8018C13.5912 26.4365 13.0391 26.968 12.3767 26.968H12.3846ZM23.0069 26.9522C22.5022 26.9522 22.1158 26.7459 21.9975 26.4127L21.3981 24.8259H17.7076L17.1082 26.4127C16.99 26.7459 16.6036 26.9522 16.0989 26.9522C15.8307 26.9522 15.5705 26.8966 15.326 26.7935C14.9948 26.6348 14.6715 26.2143 15.0422 25.0639L17.9363 17.3921C18.1413 16.805 18.7643 16.202 19.5529 16.1862C20.3414 16.1703 20.9723 16.805 21.1695 17.3921L24.0636 25.0639C24.4342 26.2143 24.1109 26.6507 23.7797 26.7935C23.5431 26.9046 23.275 26.9522 23.0069 26.9522ZM20.7594 22.668L19.5529 19.2089L18.3463 22.668H20.7594ZM26.0114 26.7935C25.3805 26.7935 24.8521 26.2937 24.8521 25.6828V17.3921C24.8521 16.7177 25.4042 16.1703 26.0902 16.1703C26.7763 16.1703 27.3283 16.7256 27.3283 17.3921V24.5483H29.8991C30.5299 24.5483 31.0583 25.0481 31.0583 25.659C31.0583 26.2699 30.5378 26.7697 29.8991 26.7697L26.0114 26.7935ZM31.5236 25.7304V17.4C31.5236 16.7256 32.0756 16.1782 32.738 16.1782C33.4004 16.1782 33.9524 16.7336 33.9524 17.4V20.0181L37.3433 16.6066C37.7166 16.2311 38.4222 16.264 38.8495 16.6939C39.2509 17.0977 39.3552 17.7803 38.9363 18.2092L36.1604 20.986L39.1413 24.9529C39.5418 25.4687 39.4446 26.2721 38.9047 26.6507C38.3724 27.0474 37.5904 26.9151 37.2093 26.4127L34.3704 22.6283L33.9524 23.0488V25.7066C33.9524 27.2897 31.5236 27.3506 31.5236 25.7304Z"/></g></g></svg>

<svg xmlns="http://www.w3.org/2000/svg" fill="none" aria-hidden="true" viewBox="0 0 48 48"><path fill="#000" d="M23.992 4.5C12.4 4.5 3 11.958 3 21.16c0 5.951 3.927 11.163 9.841 14.123l-2.129 7.656s-.04.357.19.492c.228.134.504.031.504.031.663-.095 7.65-5.038 8.872-5.894 1.206.174 2.46.261 3.73.261C35.6 37.83 45 30.372 45 21.17S35.584 4.5 23.992 4.5Z"/><path fill="#FFE812" d="M12.384 26.968c-.67 0-1.214-.524-1.214-1.166v-7.244H9.277a1.185 1.185 0 0 1-1.183-1.19c0-.658.536-1.19 1.183-1.19h6.206c.655 0 1.183.532 1.183 1.19a1.19 1.19 0 0 1-1.183 1.19h-1.892v7.244c0 .634-.552 1.166-1.215 1.166h.008Zm10.622-.016c-.504 0-.89-.206-1.009-.54l-.6-1.586h-3.69l-.6 1.587c-.117.333-.504.54-1.009.54-.268 0-.528-.056-.772-.16-.332-.158-.655-.579-.284-1.73l2.894-7.67c.205-.588.828-1.191 1.616-1.207.789-.016 1.42.619 1.617 1.206l2.894 7.672c.37 1.15.047 1.587-.284 1.73a1.823 1.823 0 0 1-.773.158Zm-2.247-4.284-1.207-3.46-1.206 3.46h2.413Zm5.252 4.126c-.631 0-1.16-.5-1.16-1.111v-8.29c0-.675.553-1.223 1.239-1.223s1.238.556 1.238 1.222v7.156h2.57c.631 0 1.16.5 1.16 1.111 0 .61-.52 1.11-1.16 1.11l-3.887.025Zm5.512-1.064V17.4c0-.674.552-1.222 1.214-1.222a1.23 1.23 0 0 1 1.215 1.222v2.618l3.39-3.411c.374-.376 1.08-.343 1.507.087.401.404.506 1.086.087 1.515l-2.776 2.777 2.98 3.967c.401.516.304 1.32-.236 1.698-.532.396-1.314.264-1.695-.238l-2.84-3.785-.417.42v2.659c0 1.583-2.429 1.644-2.429.023Z"/></svg>
